svgs/sharp-solid/cart-flatbed-boxes.svg

<svg xmlns="http://www.w3.org/2000/svg" viewBox="0 0 640 512"><!--! Font Awesome Pro 6.6.0 by @fontawesome - https://fontawesome.com License - https://fontawesome.com/license (Commercial License) Copyright 2024 Fonticons, Inc. --><path d="M32 0L0 0 0 64l32 0 32 0 0 352 0 32 32 0 66.7 0c-1.8 5-2.7 10.4-2.7 16c0 26.5 21.5 48 48 48s48-21.5 48-48c0-5.6-1-11-2.7-16l197.5 0c-1.8 5-2.7 10.4-2.7 16c0 26.5 21.5 48 48 48s48-21.5 48-48c0-5.6-1-11-2.7-16l66.7 0 32 0 0-64-32 0-480 0 0-352 0-32L96 0 32 0zM384 32L192 32l0 288 192 0 0-288zm160 0L416 32l0 128 128 0 0-128zM416 192l0 128 192 0 0-128-192 0z"/></svg>

<svg xmlns="http://www.w3.org/2000/svg" viewBox="0 0 640 512"><!--! Font Awesome Pro 6.4.0 by @fontawesome - https://fontawesome.com License - https://fontawesome.com/license (Commercial License) Copyright 2023 Fonticons, Inc. --><path d="M32 0H0V64H32 64V416v32H96h66.7c-1.8 5-2.7 10.4-2.7 16c0 26.5 21.5 48 48 48s48-21.5 48-48c0-5.6-1-11-2.7-16H450.7c-1.8 5-2.7 10.4-2.7 16c0 26.5 21.5 48 48 48s48-21.5 48-48c0-5.6-1-11-2.7-16H608h32V384H608 128V32 0H96 32zM384 32H192V320H384V32zm160 0H416V160H544V32zM416 192V320H608V192H416z"/></svg>
